X:468
T: Gezu renmin xinlianxin
N: C2086
O: China, Qinghai Huzhu
S: I, 244]
N: Tuzu
R: Shange, Tuzuling]
M: 2/4
L: 1/16
K: Bb
d2ddd2dd | d2bcd4 | d6df | dcbdc4 |
d2ddd2dd | d2bdc4 | dcbdc4 | g2g2cbc2 | f2g6

